img/facebook-icon.svg

<svg width="50" height="50" viewBox="0 0 50 50" fill="none" xmlns="http://www.w3.org/2000/svg">
<path fill-rule="evenodd" clip-rule="evenodd" d="M25 50C38.8071 50 50 38.8071 50 25C50 11.1929 38.8071 0 25 0C11.1929 0 0 11.1929 0 25C0 38.8071 11.1929 50 25 50Z" fill="#4267B2"/>
<path fill-rule="evenodd" clip-rule="evenodd" d="M29.6234 16.0037L27.2249 16C24.5302 16 22.7888 17.7387 22.7888 20.4298V22.4723H20.3771C20.1688 22.4723 20 22.6367 20 22.8395V25.7988C20 26.0016 20.1689 26.1658 20.3771 26.1658H22.7888V33.633C22.7888 33.8358 22.9575 34 23.1659 34H26.3124C26.5208 34 26.6896 33.8356 26.6896 33.633V26.1658H29.5093C29.7177 26.1658 29.8865 26.0016 29.8865 25.7988L29.8876 22.8395C29.8876 22.7421 29.8478 22.6489 29.7772 22.5799C29.7066 22.511 29.6103 22.4723 29.5103 22.4723H26.6896V20.7409C26.6896 19.9087 26.8933 19.4862 28.0073 19.4862L29.623 19.4857C29.8312 19.4857 30 19.3212 30 19.1186V16.3708C30 16.1683 29.8314 16.0041 29.6234 16.0037Z" fill="white"/>
</svg>

<svg width="50" height="50" fill="none" xmlns="http://www.w3.org/2000/svg"><path fill-rule="evenodd" clip-rule="evenodd" d="M25 50c13.807 0 25-11.193 25-25S38.807 0 25 0 0 11.193 0 25s11.193 25 25 25z" fill="#4267B2"/><path fill-rule="evenodd" clip-rule="evenodd" d="M29.623 16.004L27.225 16c-2.695 0-4.436 1.739-4.436 4.43v2.042h-2.412a.372.372 0 00-.377.367v2.96c0 .203.169.367.377.367h2.412v7.467c0 .203.168.367.377.367h3.146a.372.372 0 00.378-.367v-7.467h2.82a.372.372 0 00.377-.367v-2.96c0-.097-.04-.19-.11-.26a.383.383 0 00-.267-.107h-2.82v-1.731c0-.832.203-1.255 1.317-1.255h1.616a.372.372 0 00.377-.367V16.37a.372.372 0 00-.377-.367z" fill="#fff"/></svg>
